; generated by PrusaSlicer 2.6.1+MacOS-x64 on 2024-11-18 at 15:53:37 UTC


;
;

;
;

;
;

;
;
; 

; external perimeters extrusion width = 0.45mm
; perimeters extrusion width = 0.45mm
; infill extrusion width = 0.45mm
; solid infill extrusion width = 0.45mm
; top infill extrusion width = 0.40mm
; support material extrusion width = 0.37mm
; first layer extrusion width = 0.50mm

; external perimeters extrusion width = 0.45mm
; perimeters extrusion width = 0.45mm
; infill extrusion width = 0.45mm
; solid infill extrusion width = 0.45mm
; top infill extrusion width = 0.40mm
; support material extrusion width = 0.37mm
; first layer extrusion width = 0.50mm

M73 P0 R99
M201 X2500 Y2500 Z200 E2500 ; sets maximum accelerations, mm/sec^2
M203 X200 Y200 Z40 E100 ; sets maximum feedrates, mm / sec
M204 P2000 R1200 T2000 ; sets acceleration (P, T) and retract acceleration (R), mm/sec^2
M205 X8.00 Y8.00 Z2.00 E10.00 ; sets the jerk limits, mm/sec
M205 S0 T0 ; sets the minimum extruding and travel feed rate, mm/sec
;TYPE:Custom
M17 ; enable steppers
M862.3 P "MK4" ; printer model check
M862.1 P0.4 ; nozzle diameter check
M115 U5.1.2+13478
M555 X86.6044 Y79.9072 W57.3221 H98.2893

G90 ; use absolute coordinates
M83 ; extruder relative mode

M140 S60 ; set bed temp
M104 T0 S170 ; set extruder temp for bed leveling
M109 T0 R170 ; wait for temp

M84 E ; turn off E motor

G28 ; home all without mesh bed level

G1 X42 Y-4 Z5 F4800

M302 S160 ; lower cold extrusion limit to 160C


G1 E-2 F2400 ; retraction


M84 E ; turn off E motor

G29 P9 X10 Y-4 W32 H4

M106 S100

G0 Z40 F10000

M190 S60 ; wait for bed temp

M107

;
; MBL
;
M84 E ; turn off E motor
G29 P1 ; invalidate mbl & probe print area
G29 P1 X0 Y0 W50 H20 C ; probe near purge place
G29 P3.2 ; interpolate mbl probes
G29 P3.13 ; extrapolate mbl outside probe area
G29 A ; activate mbl

; prepare for purge
M104 S215
G0 X0 Y-4 Z15 F4800 ; move away and ready for the purge
M109 S215

G92 E0
M569 S0 E ; set spreadcycle mode for extruder

;
; Extrude purge line
;
G92 E0 ; reset extruder position
G1 E2 F2400 ; deretraction after the initial one before nozzle cleaning
G0 E7 X15 Z0.2 F500 ; purge
G0 X25 E4 F500 ; purge
G0 X35 E4 F650 ; purge
G0 X45 E4 F800 ; purge
G0 X48 Z0.05 F8000 ; wipe, move close to the bed
G0 X51 Z0.2 F8000 ; wipe, move quickly away from the bed

G92 E0
M221 S100 ; set flow to 100%
G21 ; set units to millimeters
G90 ; use absolute coordinates
M83 ; use relative distances for extrusion
M900 K0.05 ; Filament gcode



M142 S36 ; set heatbreak target temp
M107
;LAYER_CHANGE
;Z:0.2
;HEIGHT:0.2
;BEFORE_LAYER_CHANGE
G92 E0.0
;0.2


G1 E-.8 F2100
G1 Z.2 F720
;AFTER_LAYER_CHANGE
;0.2
G1 Z.4
G1 X89.332 Y85.213 F12000
G1 Z.2 F720
G1 E.8 F1500
M204 P600
;TYPE:Skirt/Brim
;WIDTH:0.5
G1 F1200
G1 X90.697 Y84.322 E.06195
G1 X91.802 Y84.136 E.04259
G1 X121.941 Y84.136 E1.14547
G1 X123.522 Y84.53 E.06193
G1 X124.783 Y85.693 E.0652
G1 X125.345 Y86.834 E.04834
G1 X143.47 Y150.05 E2.49941
G1 X143.688 Y151.332 E.04942
G1 X143.688 Y153.861 E.09612
G1 X143.581 Y154.691 E.03181
G1 X143.343 Y155.505 E.03223
G1 X142.983 Y156.266 E.032
G1 X142.307 Y157.198 E.04376
G1 X122.93 Y176.574 E1.04147
G1 X121.996 Y177.253 E.04389
G1 X121.235 Y177.613 E.032
G1 X120.427 Y177.85 E.032
G1 X119.327 Y177.968 E.04205
G1 X117.062 Y177.958 E.08609
G1 X115.925 Y177.778 E.04375
G1 X115.129 Y177.493 E.03213
G1 X114.391 Y177.09 E.03196
G1 X113.529 Y176.395 E.04208
G1 X94.529 Y157.395 E1.02123
G1 X93.837 Y156.538 E.04186
G1 X93.313 Y155.511 E.04382
G1 X93.032 Y154.497 E.03999
G1 X86.884 Y119.703 E1.34288
G1 X86.833 Y119.117 E.02236
G1 X86.833 Y92.839 E.99873
G1 X86.948 Y91.966 E.03347
G1 X88.308 Y86.891 E.19969
G1 X89.094 Y85.469 E.06175
G1 X89.291 Y85.257 E.011
M204 P1000
G1 X89.626 Y85.568 F12000
M204 P600
G1 F1200
G1 X89.667 Y85.524 E.00229
G1 X90.949 Y84.72 E.05751
G1 X91.802 Y84.593 E.03278
G1 X121.941 Y84.593 E1.14547
G1 X123.403 Y84.986 E.05754
G1 X124.397 Y85.939 E.05234
G1 X124.905 Y86.96 E.04334
G1 X143.03 Y150.176 E2.49941
G1 X143.232 Y151.368 E.04595
G1 X143.232 Y153.825 E.09338
G1 X143.137 Y154.585 E.02911
G1 X142.921 Y155.33 E.02948
G1 X142.593 Y156.027 E.02928
G1 X141.959 Y156.901 E.04104
G1 X122.634 Y176.227 E1.03873
G1 X121.757 Y176.863 E.04117
G1 X121.06 Y177.191 E.02928
G1 X120.32 Y177.406 E.02929
G1 X119.327 Y177.511 E.03795
G1 X117.098 Y177.502 E.08472
G1 X116.031 Y177.333 E.04106
G1 X115.304 Y177.071 E.02937
G1 X114.63 Y176.701 E.02922
G1 X113.852 Y176.072 E.03802
G1 X94.852 Y157.072 E1.02123
G1 X94.227 Y156.299 E.03778
G1 X93.735 Y155.336 E.0411
G1 X93.482 Y154.417 E.03623
G1 X87.334 Y119.624 E1.34284
G1 X87.29 Y92.839 E1.018
G1 X87.389 Y92.084 E.02894
G1 X88.749 Y87.009 E.19969
G1 X89.429 Y85.78 E.05338
G1 X89.585 Y85.612 E.00871
M204 P1000
M73 P0 R98
G1 X89.92 Y85.923 F12000
M204 P600
G1 F1200
G1 X90.001 Y85.835 E.00455
G1 X91.802 Y85.05 E.07467
G1 X121.941 Y85.05 E1.14547
G1 X123.272 Y85.442 E.05273
G1 X124.012 Y86.185 E.03986
G1 X124.466 Y87.086 E.03835
G1 X142.591 Y150.302 E2.49941
G1 X142.776 Y151.404 E.04247
G1 X142.776 Y153.79 E.09068
G1 X142.619 Y154.786 E.03832
G1 X142.379 Y155.445 E.02666
G1 X142.041 Y156.054 E.02647
G1 X141.478 Y156.748 E.03396
G1 X122.337 Y175.879 E1.02854
G1 X121.519 Y176.474 E.03844
G1 X120.885 Y176.769 E.02658
G1 X120.213 Y176.961 E.02656
G1 X119.327 Y177.054 E.03386
G1 X117.134 Y177.046 E.08335
G1 X116.138 Y176.889 E.03832
G1 X115.478 Y176.649 E.02669
G1 X114.869 Y176.311 E.02647
G1 X114.175 Y175.748 E.03396
G1 X95.175 Y156.748 E1.02123
G1 X94.616 Y156.06 E.03369
G1 X94.157 Y155.161 E.03836
G1 X93.932 Y154.338 E.03243
G1 X87.785 Y119.544 E1.34287
G1 X87.747 Y92.839 E1.01496
G1 X87.831 Y92.203 E.02438
G1 X89.191 Y87.127 E.19972
G1 X89.764 Y86.091 E.045
G1 X89.879 Y85.967 E.00643
M204 P1000
; printing object gate - Part 15.stl id:0 copy 0
G1 E-.64 F2100
;WIPE_START
G1 F9600
G1 X90.001 Y85.835 E-.03735
G1 X90.542 Y85.599 E-.12265
;WIPE_END
G1 Z.4 F720
G1 X92.098 Y87.555 F12000
G1 Z.2 F720
G1 E.8 F1500
M204 P600
;TYPE:Support material interface
;WIDTH:0.37
G1 F1200
G1 X91.789 Y87.555 E.0084
G1 X91.802 Y87.507 E.00135
G1 X92.213 Y87.507 E.01118
G1 X92.262 Y87.555 E.00187
G1 X93.007 Y87.555 E.02026
G1 X92.959 Y87.507 E.00185
G1 X93.704 Y87.507 E.02026
G1 X93.753 Y87.555 E.00187
G1 X94.498 Y87.555 E.02026
G1 X94.45 Y87.507 E.00185
G1 X95.195 Y87.507 E.02026
G1 X95.243 Y87.555 E.00185
G1 X95.989 Y87.555 E.02029
G1 X95.94 Y87.507 E.00187
G1 X96.686 Y87.507 E.02029
G1 X96.734 Y87.555 E.00185
G1 X97.48 Y87.555 E.02029
G1 X97.431 Y87.507 E.00187
G1 X98.177 Y87.507 E.02029
G1 X98.225 Y87.555 E.00185
G1 X98.97 Y87.555 E.02026
G1 X98.922 Y87.507 E.00185
G1 X99.667 Y87.507 E.02026
G1 X99.716 Y87.555 E.00187
G1 X100.461 Y87.555 E.02026
G1 X100.413 Y87.507 E.00185
G1 X101.158 Y87.507 E.02026
G1 X101.207 Y87.555 E.00187
G1 X101.952 Y87.555 E.02026
G1 X101.904 Y87.507 E.00185
G1 X102.649 Y87.507 E.02026
G1 X102.697 Y87.555 E.00185
G1 X103.443 Y87.555 E.02029
G1 X103.394 Y87.507 E.00187
G1 X104.14 Y87.507 E.02029
G1 X104.188 Y87.555 E.00185
G1 X104.934 Y87.555 E.02029
G1 X104.885 Y87.507 E.00187
G1 X105.631 Y87.507 E.02029
G1 X105.679 Y87.555 E.00185
G1 X106.424 Y87.555 E.02026
G1 X106.376 Y87.507 E.00185
G1 X107.121 Y87.507 E.02026
G1 X107.17 Y87.555 E.00187
G1 X107.915 Y87.555 E.02026
G1 X107.867 Y87.507 E.00185
G1 X108.612 Y87.507 E.02026
G1 X108.661 Y87.555 E.00187
G1 X109.406 Y87.555 E.02026
G1 X109.358 Y87.507 E.00185
G1 X110.103 Y87.507 E.02026
G1 X110.152 Y87.555 E.00187
G1 X110.897 Y87.555 E.02026
G1 X110.848 Y87.507 E.00187
G1 X111.594 Y87.507 E.02029
G1 X111.642 Y87.555 E.00185
G1 X112.388 Y87.555 E.02029
G1 X112.339 Y87.507 E.00187
G1 X113.085 Y87.507 E.02029
G1 X113.133 Y87.555 E.00185
G1 X113.879 Y87.555 E.02029
G1 X113.83 Y87.507 E.00187
G1 X114.575 Y87.507 E.02026
G1 X114.624 Y87.555 E.00187
G1 X115.369 Y87.555 E.02026
G1 X115.321 Y87.507 E.00185
G1 X116.066 Y87.507 E.02026
G1 X116.115 Y87.555 E.00187
G1 X116.86 Y87.555 E.02026
G1 X116.812 Y87.507 E.00185
G1 X117.557 Y87.507 E.02026
G1 X117.606 Y87.555 E.00187
G1 X118.351 Y87.555 E.02026
G1 X118.302 Y87.507 E.00187
G1 X119.048 Y87.507 E.02029
G1 X119.096 Y87.555 E.00185
G1 X119.842 Y87.555 E.02029
G1 X119.793 Y87.507 E.00187
G1 X120.539 Y87.507 E.02029
G1 X120.587 Y87.555 E.00185
G1 X121.333 Y87.555 E.02029
G1 X121.284 Y87.507 E.00187
G1 X121.941 Y87.507 E.01787
G1 X121.941 Y87.555 E.00131
G1 X121.496 Y87.555 E.0121
M204 P1000
G1 E-.64 F2100
;WIPE_START
G1 F9600
G1 X121.941 Y87.555 E-.09248
G1 X121.941 Y87.507 E-.00998
G1 X121.664 Y87.507 E-.05754
;WIPE_END
G1 Z.4 F720
G1 X121.197 Y118.21 F12000
G1 Z.2 F720
G1 E.8 F1500
M204 P600
;TYPE:Perimeter
;WIDTH:0.499999
G1 F1200
G1 X91.111 Y118.21 E1.14346
G1 X91.111 Y92.958 E.95973
G1 X92.044 Y89.478 E.13693
G1 X121.197 Y89.478 E1.108
G1 X121.197 Y118.15 E1.08972
M204 P1000
G1 X121.654 Y118.667 F12000
M204 P600
;TYPE:External perimeter
G1 F1200
G1 X90.654 Y118.667 E1.17819
G1 X90.654 Y92.898 E.97938
G1 X91.693 Y89.021 E.15255
G1 X121.654 Y89.021 E1.13871
G1 X121.654 Y118.607 E1.12445
M204 P1000
G1 X121.268 Y118.564 F12000
G1 E-.64 F2100
;WIPE_START
G1 F9600
G1 X120.884 Y118.608 E-.16
;WIPE_END
G1 Z.4 F720
G1 X120.991 Y90.617 F12000
G1 Z.2 F720
G1 E.8 F1500
M204 P600
;TYPE:Solid infill
;WIDTH:0.504413
M73 P1 R98
G1 F1200
G1 X120.264 Y89.89 E.03945
G1 X119.611 Y89.89 E.02506
G1 X120.786 Y91.064 E.06374
G1 X120.786 Y91.717 E.02506
G1 X118.958 Y89.89 E.09917
G1 X118.306 Y89.89 E.02502
G1 X120.786 Y92.37 E.13458
G1 X120.786 Y93.022 E.02502
G1 X117.653 Y89.89 E.16999
G1 X117.001 Y89.89 E.02502
G1 X120.786 Y93.675 E.2054
G1 X120.786 Y94.328 E.02506
G1 X116.348 Y89.89 E.24084
G1 X115.695 Y89.89 E.02506
G1 X120.786 Y94.98 E.27625
G1 X120.786 Y95.633 E.02506
G1 X115.043 Y89.89 E.31166
G1 X114.39 Y89.89 E.02506
G1 X120.786 Y96.286 E.3471
G1 X120.786 Y96.938 E.02502
G1 X113.737 Y89.89 E.38251
G1 X113.085 Y89.89 E.02502
G1 X120.786 Y97.591 E.41792
G1 X120.786 Y98.244 E.02506
G1 X112.432 Y89.89 E.45336
G1 X111.779 Y89.89 E.02506
G1 X120.786 Y98.896 E.48877
G1 X120.786 Y99.549 E.02506
G1 X111.127 Y89.89 E.52418
G1 X110.474 Y89.89 E.02506
G1 X120.786 Y100.201 E.55958
G1 X120.786 Y100.854 E.02506
G1 X109.821 Y89.89 E.59502
G1 X109.169 Y89.89 E.02502
G1 X120.786 Y101.507 E.63043
G1 X120.786 Y102.159 E.02502
G1 X108.516 Y89.89 E.66584
G1 X107.863 Y89.89 E.02506
G1 X120.786 Y102.812 E.70128
G1 X120.786 Y103.465 E.02506
G1 X107.211 Y89.89 E.73669
G1 X106.558 Y89.89 E.02506
G1 X120.786 Y104.117 E.7721
G1 X120.786 Y104.77 E.02506
G1 X105.905 Y89.89 E.80754
G1 X105.253 Y89.89 E.02502
G1 X120.786 Y105.423 E.84295
G1 X120.786 Y106.075 E.02502
G1 X104.6 Y89.89 E.87836
G1 X103.948 Y89.89 E.02502
G1 X120.786 Y106.728 E.91377
G1 X120.786 Y107.381 E.02506
G1 X103.295 Y89.89 E.9492
G1 X102.642 Y89.89 E.02506
G1 X120.786 Y108.033 E.98461
G1 X120.786 Y108.686 E.02506
G1 X101.99 Y89.89 E1.02002
G1 X101.337 Y89.89 E.02506
G1 X120.786 Y109.339 E1.05546
G1 X120.786 Y109.991 E.02502
G1 X100.684 Y89.89 E1.09087
G1 X100.032 Y89.89 E.02502
G1 X120.786 Y110.644 E1.12628
G1 X120.786 Y111.297 E.02506
G1 X99.379 Y89.89 E1.16172
G1 X98.726 Y89.89 E.02506
G1 X120.786 Y111.949 E1.19713
G1 X120.786 Y112.602 E.02506
G1 X98.074 Y89.89 E1.23254
G1 X97.421 Y89.89 E.02506
G1 X120.786 Y113.254 E1.26795
G1 X120.786 Y113.907 E.02506
G1 X96.768 Y89.89 E1.30338
G1 X96.116 Y89.89 E.02502
G1 X120.786 Y114.56 E1.33879
G1 X120.786 Y115.212 E.02502
M73 P1 R97
G1 X95.463 Y89.89 E1.3742
G1 X94.81 Y89.89 E.02506
G1 X120.786 Y115.865 E1.40964
G1 X120.786 Y116.518 E.02506
G1 X94.158 Y89.89 E1.44505
G1 X93.505 Y89.89 E.02506
G1 X120.786 Y117.17 E1.48046
G1 X120.786 Y117.798 E.0241
G1 X120.761 Y117.798 E.00096
G1 X92.852 Y89.89 E1.51454
G1 X92.359 Y89.89 E.01892
G1 X92.326 Y90.016 E.005
G1 X120.108 Y117.798 E1.50767
G1 X119.456 Y117.798 E.02502
G1 X92.188 Y90.53 E1.47978
G1 X92.05 Y91.045 E.02046
G1 X118.803 Y117.798 E1.45183
G1 X118.15 Y117.798 E.02506
G1 X91.912 Y91.56 E1.42388
G1 X91.774 Y92.074 E.02042
G1 X117.498 Y117.798 E1.39599
G1 X116.845 Y117.798 E.02506
G1 X91.636 Y92.589 E1.36804
G1 X91.523 Y93.012 E.0168
G1 X91.523 Y93.128 E.00445
G1 X116.193 Y117.798 E1.33879
G1 X115.54 Y117.798 E.02506
G1 X91.523 Y93.781 E1.30336
G1 X91.523 Y94.434 E.02506
G1 X114.887 Y117.798 E1.26792
G1 X114.235 Y117.798 E.02502
G1 X91.523 Y95.086 E1.23254
G1 X91.523 Y95.739 E.02506
G1 X113.582 Y117.798 E1.1971
G1 X112.929 Y117.798 E.02506
M73 P2 R97
G1 X91.523 Y96.392 E1.16166
G1 X91.523 Y97.044 E.02502
G1 X112.277 Y117.798 E1.12628
G1 X111.624 Y117.798 E.02506
G1 X91.523 Y97.697 E1.09084
G1 X91.523 Y98.35 E.02506
G1 X110.971 Y117.798 E1.0554
G1 X110.319 Y117.798 E.02502
G1 X91.523 Y99.002 E1.02002
G1 X91.523 Y99.655 E.02506
G1 X109.666 Y117.798 E.98459
G1 X109.013 Y117.798 E.02506
G1 X91.523 Y100.308 E.94915
G1 X91.523 Y100.96 E.02502
G1 X108.361 Y117.798 E.91377
G1 X107.708 Y117.798 E.02506
G1 X91.523 Y101.613 E.87833
G1 X91.523 Y102.266 E.02506
G1 X107.055 Y117.798 E.84289
G1 X106.403 Y117.798 E.02502
G1 X91.523 Y102.918 E.80751
G1 X91.523 Y103.571 E.02506
G1 X105.75 Y117.798 E.77207
G1 X105.097 Y117.798 E.02506
G1 X91.523 Y104.224 E.73663
G1 X91.523 Y104.876 E.02502
G1 X104.445 Y117.798 E.70125
G1 X103.792 Y117.798 E.02506
G1 X91.523 Y105.529 E.66581
G1 X91.523 Y106.181 E.02502
G1 X103.14 Y117.798 E.63043
G1 X102.487 Y117.798 E.02506
G1 X91.523 Y106.834 E.59499
G1 X91.523 Y107.487 E.02506
G1 X101.834 Y117.798 E.55956
G1 X101.182 Y117.798 E.02502
G1 X91.523 Y108.139 E.52418
G1 X91.523 Y108.792 E.02506
G1 X100.529 Y117.798 E.48874
G1 X99.876 Y117.798 E.02506
G1 X91.523 Y109.445 E.4533
G1 X91.523 Y110.097 E.02502
G1 X99.224 Y117.798 E.41792
G1 X98.571 Y117.798 E.02506
G1 X91.523 Y110.75 E.38248
G1 X91.523 Y111.403 E.02506
G1 X97.918 Y117.798 E.34704
G1 X97.266 Y117.798 E.02502
M73 P2 R96
G1 X91.523 Y112.055 E.31166
G1 X91.523 Y112.708 E.02506
G1 X96.613 Y117.798 E.27622
G1 X95.96 Y117.798 E.02506
G1 X91.523 Y113.361 E.24079
G1 X91.523 Y114.013 E.02502
G1 X95.308 Y117.798 E.2054
G1 X94.655 Y117.798 E.02506
G1 X91.523 Y114.666 E.16997
G1 X91.523 Y115.319 E.02506
G1 X94.002 Y117.798 E.13453
G1 X93.35 Y117.798 E.02502
G1 X91.523 Y115.971 E.09915
G1 X91.523 Y116.624 E.02506
G1 X92.697 Y117.798 E.06371
G1 X92.044 Y117.798 E.02506
G1 X91.317 Y117.071 E.03945
M204 P1000
; stop printing object gate - Part 15.stl id:0 copy 0
; printing object spinner1.STL id:1 copy 0
G1 E-.64 F2100
;WIPE_START
G1 F9600
G1 X91.861 Y117.615 E-.16
;WIPE_END
G1 Z.4 F720
G1 X118.802 Y150.77 F12000
G1 Z.2 F720
G1 E.8 F1500
M204 P600
;TYPE:Support material
;WIDTH:0.5
G1 F1200
G1 X119.104 Y150.877 E.01218
G1 X119.384 Y151.033 E.01218
G1 X119.633 Y151.234 E.01216
G1 X119.845 Y151.474 E.01217
G1 X120.012 Y151.747 E.01216
G1 X120.132 Y152.044 E.01217
G1 X120.199 Y152.357 E.01217
G1 X120.213 Y152.677 E.01217
G1 X120.172 Y152.994 E.01215
G1 X120.078 Y153.301 E.0122
G1 X119.934 Y153.587 E.01217
G1 X119.744 Y153.844 E.01215
G1 X119.513 Y154.066 E.01218
G1 X119.247 Y154.245 E.01219
G1 X118.956 Y154.377 E.01214
G1 X118.646 Y154.457 E.01217
G1 X118.327 Y154.485 E.01217
G1 X118.008 Y154.457 E.01217
G1 X117.698 Y154.377 E.01217
G1 X117.406 Y154.245 E.01218
G1 X117.141 Y154.066 E.01215
G1 X116.91 Y153.844 E.01218
G1 X116.719 Y153.587 E.01217
G1 X116.575 Y153.301 E.01217
G1 X116.481 Y152.994 E.0122
G1 X116.441 Y152.677 E.01214
G1 X116.454 Y152.357 E.01217
G1 X116.522 Y152.044 E.01217
G1 X116.641 Y151.747 E.01216
G1 X116.809 Y151.474 E.01218
G1 X117.021 Y151.234 E.01217
G1 X117.27 Y151.033 E.01216
G1 X117.549 Y150.877 E.01215
G1 X117.851 Y150.77 E.01218
G1 X118.167 Y150.716 E.01218
G1 X118.487 Y150.716 E.01216
G1 X118.735 Y150.758 E.00956
M204 P1000
G1 X119.469 Y153.822 F12000
M204 P600
G1 F1200
G1 X119.469 Y151.671 E.08175
G1 X119.347 Y151.532 E.00703
G1 X119.153 Y151.375 E.00949
G1 X118.898 Y151.24 E.01097
G1 X118.898 Y153.951 E.10304
G1 X118.818 Y153.987 E.00333
G1 X118.576 Y154.05 E.0095
G1 X118.327 Y154.072 E.0095
G1 X118.327 Y151.127 E.11193
G1 X118.202 Y151.127 E.00475
G1 X117.955 Y151.169 E.00952
G1 X117.755 Y151.24 E.00807
G1 X117.755 Y153.951 E.10304
