; generated by PrusaSlicer 2.6.1+MacOS-x64 on 2024-11-19 at 02:52:07 UTC


;
;

;
;

;
;

;
;
; 

; external perimeters extrusion width = 0.45mm
; perimeters extrusion width = 0.45mm
; infill extrusion width = 0.45mm
; solid infill extrusion width = 0.45mm
; top infill extrusion width = 0.40mm
; first layer extrusion width = 0.50mm

M73 P0 R49
M201 X2500 Y2500 Z200 E2500 ; sets maximum accelerations, mm/sec^2
M203 X200 Y200 Z40 E100 ; sets maximum feedrates, mm / sec
M204 P2000 R1200 T2000 ; sets acceleration (P, T) and retract acceleration (R), mm/sec^2
M205 X8.00 Y8.00 Z2.00 E10.00 ; sets the jerk limits, mm/sec
M205 S0 T0 ; sets the minimum extruding and travel feed rate, mm/sec
;TYPE:Custom
M17 ; enable steppers
M862.3 P "MK4" ; printer model check
M862.1 P0.4 ; nozzle diameter check
M115 U5.1.2+13478
M555 X100.823 Y82.3982 W51.1996 H55.1996

G90 ; use absolute coordinates
M83 ; extruder relative mode

M140 S60 ; set bed temp
M104 T0 S170 ; set extruder temp for bed leveling
M109 T0 R170 ; wait for temp

M84 E ; turn off E motor

G28 ; home all without mesh bed level

G1 X42 Y-4 Z5 F4800

M302 S160 ; lower cold extrusion limit to 160C


G1 E-2 F2400 ; retraction


M84 E ; turn off E motor

G29 P9 X10 Y-4 W32 H4

M106 S100

G0 Z40 F10000

M190 S60 ; wait for bed temp

M107

;
; MBL
;
M84 E ; turn off E motor
G29 P1 ; invalidate mbl & probe print area
G29 P1 X0 Y0 W50 H20 C ; probe near purge place
G29 P3.2 ; interpolate mbl probes
G29 P3.13 ; extrapolate mbl outside probe area
G29 A ; activate mbl

; prepare for purge
M104 S215
G0 X0 Y-4 Z15 F4800 ; move away and ready for the purge
M109 S215

G92 E0
M569 S0 E ; set spreadcycle mode for extruder

;
; Extrude purge line
;
G92 E0 ; reset extruder position
G1 E2 F2400 ; deretraction after the initial one before nozzle cleaning
G0 E7 X15 Z0.2 F500 ; purge
G0 X25 E4 F500 ; purge
G0 X35 E4 F650 ; purge
G0 X45 E4 F800 ; purge
G0 X48 Z0.05 F8000 ; wipe, move close to the bed
G0 X51 Z0.2 F8000 ; wipe, move quickly away from the bed

G92 E0
M221 S100 ; set flow to 100%
G21 ; set units to millimeters
G90 ; use absolute coordinates
M83 ; use relative distances for extrusion
M900 K0.05 ; Filament gcode



M142 S36 ; set heatbreak target temp
M107
;LAYER_CHANGE
;Z:0.2
;HEIGHT:0.2
;BEFORE_LAYER_CHANGE
G92 E0.0
;0.2


G1 E-.8 F2100
G1 Z.2 F720
;AFTER_LAYER_CHANGE
;0.2
G1 Z.4
G1 X104.923 Y104.917 F12000
G1 Z.2 F720
G1 E.8 F1500
M204 P600
;TYPE:Skirt/Brim
;WIDTH:0.5
G1 F1200
G1 X121.819 Y88.02 E.90817
G1 X122.484 Y87.507 E.03192
G1 X123.217 Y87.105 E.03177
G1 X124.319 Y86.745 E.04406
G1 X125.419 Y86.627 E.04205
G1 X127.687 Y86.637 E.0862
G1 X128.82 Y86.816 E.0436
G1 X129.61 Y87.097 E.03187
G1 X130.35 Y87.5 E.03202
G1 X131.019 Y88.015 E.03209
G1 X150.4 Y107.394 E1.04166
G1 X150.909 Y108.053 E.03165
G1 X151.319 Y108.8 E.03239
G1 X151.674 Y109.892 E.04364
G1 X151.793 Y110.994 E.04213
G1 X151.783 Y113.262 E.0862
G1 X151.676 Y114.098 E.03203
G1 X151.32 Y115.193 E.04376
G1 X150.918 Y115.931 E.03194
G1 X150.406 Y116.595 E.03187
G1 X131.026 Y135.976 E1.04168
G1 X130.092 Y136.654 E.04386
G1 X129.33 Y137.015 E.03205
G1 X128.522 Y137.251 E.03199
G1 X127.422 Y137.369 E.04205
G1 X125.158 Y137.359 E.08605
G1 X124.322 Y137.251 E.03204
G1 X123.514 Y137.015 E.03199
G1 X122.753 Y136.654 E.03201
G1 X121.825 Y135.981 E.04357
G1 X102.445 Y116.602 E1.04163
G1 X101.935 Y115.943 E.03167
G1 X101.529 Y115.204 E.03205
G1 X101.169 Y114.1 E.04413
G1 X101.051 Y112.999 E.04208
G1 X101.061 Y110.734 E.08609
G1 X101.241 Y109.598 E.04371
G1 X101.523 Y108.806 E.03195
G1 X101.925 Y108.069 E.03191
G1 X102.437 Y107.403 E.03193
G1 X104.881 Y104.959 E.13136
M204 P1000
G1 X105.203 Y105.281 F12000
M204 P600
G1 F1200
G1 X122.115 Y88.368 E.90903
G1 X122.723 Y87.896 E.02925
G1 X123.392 Y87.527 E.02904
G1 X124.426 Y87.19 E.04133
G1 X125.419 Y87.084 E.03795
G1 X127.651 Y87.093 E.08483
G1 X128.714 Y87.261 E.0409
G1 X129.436 Y87.52 E.02915
G1 X130.112 Y87.89 E.02929
G1 X130.723 Y88.362 E.02934
M73 P0 R48
G1 X150.052 Y107.691 E1.03892
G1 X150.52 Y108.293 E.02898
G1 X150.897 Y108.975 E.02962
G1 X151.23 Y109.999 E.04092
G1 X151.336 Y110.994 E.03803
G1 X151.327 Y113.227 E.08487
G1 X151.231 Y113.991 E.02927
G1 X150.898 Y115.018 E.04103
G1 X150.528 Y115.692 E.02922
G1 X150.057 Y116.299 E.0292
G1 X130.729 Y135.628 E1.03889
G1 X129.853 Y136.265 E.04117
G1 X129.156 Y136.592 E.02926
G1 X128.415 Y136.807 E.02932
G1 X127.422 Y136.912 E.03795
G1 X125.194 Y136.903 E.08468
G1 X124.429 Y136.807 E.0293
G1 X123.689 Y136.592 E.02929
G1 X122.992 Y136.265 E.02926
G1 X122.121 Y135.633 E.0409
G1 X102.792 Y116.305 E1.03889
G1 X102.324 Y115.703 E.02898
G1 X101.951 Y115.028 E.02931
G1 X101.614 Y113.993 E.04137
G1 X101.508 Y112.999 E.03799
G1 X101.517 Y110.769 E.08475
G1 X101.685 Y109.705 E.04094
G1 X101.945 Y108.981 E.02924
G1 X102.315 Y108.307 E.02922
G1 X102.785 Y107.699 E.02921
G1 X105.161 Y105.324 E.12768
M204 P1000
G1 X105.478 Y105.641 F12000
M204 P600
G1 F1200
G1 X122.412 Y88.715 E.90997
G1 X122.962 Y88.286 E.02651
G1 X123.568 Y87.949 E.02635
G1 X124.533 Y87.634 E.03858
G1 X125.419 Y87.541 E.03386
G1 X127.615 Y87.548 E.08346
G1 X128.608 Y87.705 E.03821
G1 X129.262 Y87.942 E.02644
G1 X129.874 Y88.281 E.02659
G1 X130.57 Y88.843 E.034
G1 X149.705 Y107.988 E1.02876
G1 X150.131 Y108.532 E.02626
G1 X150.474 Y109.15 E.02686
G1 X150.785 Y110.106 E.03821
G1 X150.879 Y110.995 E.03398
G1 X150.872 Y113.191 E.08346
G1 X150.787 Y113.884 E.02654
G1 X150.475 Y114.844 E.03836
G1 X150.138 Y115.453 E.02645
G1 X149.574 Y116.15 E.03408
G1 X130.432 Y135.281 E1.02857
G1 X129.614 Y135.875 E.03842
G1 X128.981 Y136.17 E.02654
G1 X128.309 Y136.363 E.02657
G1 X127.422 Y136.455 E.03389
G1 X125.23 Y136.447 E.08331
G1 X124.536 Y136.363 E.02657
G1 X123.574 Y136.05 E.03845
G1 X122.967 Y135.714 E.02637
G1 X122.271 Y135.15 E.03405
G1 X103.14 Y116.008 E1.02857
G1 X102.714 Y115.464 E.02626
G1 X102.373 Y114.852 E.02663
G1 X102.058 Y113.886 E.03862
G1 X101.965 Y112.999 E.0339
G1 X101.973 Y110.805 E.08339
G1 X102.13 Y109.811 E.03825
G1 X102.368 Y109.155 E.02652
G1 X102.705 Y108.545 E.02649
G1 X103.267 Y107.85 E.03397
M73 P1 R48
G1 X105.435 Y105.683 E.1165
M204 P1000
; printing object spinner1.STL id:0 copy 0
G1 E-.64 F2100
;WIPE_START
G1 F9600
G1 X105.98 Y105.139 E-.16
;WIPE_END
G1 Z.4 F720
G1 X124.329 Y117.972 F12000
G1 Z.2 F720
G1 E.8 F1500
M204 P600
;TYPE:Perimeter
;WIDTH:0.499999
G1 F1200
G1 X124.271 Y117.334 E.02435
G1 X124.153 Y116.842 E.01923
G1 X123.972 Y116.382 E.01879
G1 X123.748 Y115.966 E.01796
G1 X123.376 Y115.455 E.02402
G1 X122.995 Y115.069 E.02061
G1 X122.593 Y114.757 E.01934
G1 X122.147 Y114.494 E.01968
G1 X121.578 Y114.267 E.02328
G1 X120.98 Y114.132 E.0233
G1 X120.431 Y114.091 E.02092
G1 X106.582 Y114.091 E.52635
G1 X106.087 Y114.028 E.01896
G1 X105.785 Y113.875 E.01287
G1 X105.546 Y113.635 E.01287
G1 X105.392 Y113.333 E.01288
G1 X105.329 Y112.936 E.01528
G1 X105.329 Y111.158 E.06758
G1 X105.392 Y110.663 E.01896
G1 X105.546 Y110.361 E.01288
G1 X105.785 Y110.121 E.01287
G1 X106.087 Y109.968 E.01287
G1 X106.485 Y109.905 E.01531
G1 X120.485 Y109.903 E.53209
G1 X121.088 Y109.847 E.02302
G1 X121.68 Y109.696 E.02322
G1 X122.147 Y109.502 E.01922
G1 X122.578 Y109.248 E.01901
G1 X122.909 Y109 E.01572
G1 X123.279 Y108.655 E.01923
G1 X123.614 Y108.25 E.01998
G1 X123.969 Y107.621 E.02745
G1 X124.153 Y107.154 E.01908
G1 X124.288 Y106.556 E.0233
G1 X124.329 Y106.007 E.02092
G1 X124.329 Y92.158 E.52635
G1 X124.392 Y91.663 E.01896
G1 X124.546 Y91.361 E.01288
G1 X124.785 Y91.121 E.01287
G1 X125.087 Y90.968 E.01287
G1 X125.485 Y90.905 E.01531
G1 X127.262 Y90.905 E.06754
G1 X127.758 Y90.968 E.019
G1 X128.059 Y91.121 E.01283
G1 X128.299 Y91.361 E.0129
G1 X128.453 Y91.663 E.01288
G1 X128.515 Y92.06 E.01527
G1 X128.517 Y106.06 E.53209
G1 X128.573 Y106.662 E.02298
G1 X128.724 Y107.256 E.02329
G1 X128.967 Y107.819 E.02331
G1 X129.348 Y108.401 E.02644
G1 X129.699 Y108.798 E.02014
G1 X130.266 Y109.248 E.02751
G1 X130.697 Y109.502 E.01901
G1 X131.267 Y109.729 E.02332
G1 X131.864 Y109.864 E.02326
G1 X132.414 Y109.905 E.02096
G1 X146.262 Y109.905 E.52631
G1 X146.758 Y109.968 E.019
G1 X147.059 Y110.121 E.01283
G1 X147.299 Y110.361 E.0129
G1 X147.453 Y110.663 E.01288
G1 X147.515 Y111.158 E.01896
G1 X147.515 Y112.838 E.06385
G1 X147.453 Y113.333 E.01896
G1 X147.299 Y113.635 E.01288
G1 X147.059 Y113.875 E.0129
G1 X146.758 Y114.028 E.01283
G1 X146.36 Y114.091 E.01531
G1 X132.36 Y114.093 E.53209
G1 X131.758 Y114.149 E.02298
G1 X131.164 Y114.3 E.02329
G1 X130.537 Y114.582 E.02613
G1 X130.083 Y114.87 E.02043
G1 X129.623 Y115.274 E.02327
G1 X129.231 Y115.746 E.02332
G1 X128.918 Y116.273 E.0233
G1 X128.691 Y116.842 E.02328
G1 X128.556 Y117.44 E.0233
G1 X128.515 Y117.989 E.02092
G1 X128.515 Y131.838 E.52635
G1 X128.453 Y132.333 E.01896
G1 X128.299 Y132.635 E.01288
G1 X128.059 Y132.875 E.0129
G1 X127.758 Y133.028 E.01283
G1 X127.36 Y133.091 E.01531
G1 X125.582 Y133.091 E.06758
G1 X125.087 Y133.028 E.01896
G1 X124.785 Y132.875 E.01287
G1 X124.546 Y132.635 E.01287
G1 X124.392 Y132.333 E.01288
G1 X124.329 Y131.936 E.01528
G1 X124.329 Y118.032 E.52844
M204 P1000
G1 X123.872 Y118.057 F12000
M204 P600
;TYPE:External perimeter
G1 F1200
G1 X123.827 Y117.441 E.02347
G1 X123.698 Y116.915 E.02058
G1 X123.488 Y116.416 E.02058
G1 X123.203 Y115.956 E.02057
G1 X122.849 Y115.546 E.02059
G1 X122.436 Y115.196 E.02058
G1 X121.973 Y114.916 E.02056
G1 X121.471 Y114.711 E.02061
G1 X120.944 Y114.588 E.02057
G1 X120.431 Y114.548 E.01956
G1 X106.449 Y114.548 E.5314
G1 X105.944 Y114.469 E.01943
G1 X105.513 Y114.249 E.01839
G1 X105.171 Y113.907 E.01838
G1 X104.952 Y113.476 E.01837
G1 X104.872 Y112.971 E.01943
G1 X104.872 Y111.025 E.07396
G1 X104.952 Y110.52 E.01943
G1 X105.171 Y110.089 E.01837
G1 X105.513 Y109.747 E.01838
G1 X105.944 Y109.527 E.01839
G1 X106.449 Y109.448 E.01943
G1 X120.449 Y109.447 E.53209
G1 X120.981 Y109.402 E.02029
G1 X121.505 Y109.274 E.0205
G1 X122.005 Y109.064 E.02061
G1 X122.465 Y108.779 E.02057
G1 X122.874 Y108.425 E.02056
G1 X123.224 Y108.011 E.0206
G1 X123.504 Y107.548 E.02056
G1 X123.709 Y107.047 E.02057
G1 X123.833 Y106.52 E.02058
G1 X123.872 Y106.007 E.01955
G1 X123.872 Y92.025 E.5314
G1 X123.952 Y91.52 E.01943
G1 X124.171 Y91.089 E.01837
G1 X124.513 Y90.747 E.01838
G1 X124.944 Y90.527 E.01839
G1 X125.449 Y90.448 E.01943
G1 X127.396 Y90.448 E.074
G1 X127.9 Y90.527 E.01939
G1 X128.331 Y90.747 E.01839
G1 X128.673 Y91.089 E.01838
G1 X128.893 Y91.52 E.01839
G1 X128.972 Y92.025 E.01943
G1 X128.973 Y106.025 E.53209
G1 X129.018 Y106.555 E.02022
G1 X129.147 Y107.081 E.02058
G1 X129.356 Y107.58 E.02056
G1 X129.642 Y108.04 E.02059
G1 X129.995 Y108.45 E.02056
G1 X130.409 Y108.8 E.0206
G1 X130.872 Y109.08 E.02056
G1 X131.373 Y109.285 E.02057
G1 X131.9 Y109.408 E.02057
G1 X132.414 Y109.448 E.01959
G1 X146.396 Y109.448 E.5314
G1 X146.9 Y109.527 E.01939
G1 X147.331 Y109.747 E.01839
G1 X147.673 Y110.089 E.01838
G1 X147.893 Y110.52 E.01839
G1 X147.972 Y111.158 E.02443
G1 X147.972 Y112.971 E.06891
G1 X147.893 Y113.476 E.01943
G1 X147.673 Y113.907 E.01839
G1 X147.331 Y114.249 E.01838
G1 X146.9 Y114.469 E.01839
G1 X146.396 Y114.548 E.01939
G1 X132.396 Y114.549 E.53209
G1 X131.865 Y114.593 E.02025
G1 X131.339 Y114.722 E.02058
G1 X130.84 Y114.932 E.02058
G1 X130.38 Y115.217 E.02057
G1 X129.97 Y115.571 E.02059
G1 X129.621 Y115.985 E.02058
G1 X129.34 Y116.448 E.02058
G1 X129.136 Y116.949 E.02056
G1 X129.012 Y117.476 E.02058
G1 X128.972 Y117.989 E.01956
G1 X128.972 Y131.971 E.5314
G1 X128.893 Y132.476 E.01943
G1 X128.673 Y132.907 E.01839
G1 X128.331 Y133.249 E.01838
G1 X127.9 Y133.469 E.01839
G1 X127.396 Y133.548 E.01939
G1 X125.449 Y133.548 E.074
G1 X124.944 Y133.469 E.01943
G1 X124.513 Y133.249 E.01839
G1 X124.171 Y132.907 E.01838
G1 X123.952 Y132.476 E.01837
G1 X123.872 Y131.971 E.01943
G1 X123.872 Y118.117 E.52654
M204 P1000
G1 X124.208 Y117.839 F12000
G1 E-.64 F2100
;WIPE_START
G1 F9600
G1 X123.827 Y117.441 E-.14079
G1 X123.805 Y117.351 E-.01921
;WIPE_END
G1 Z.4 F720
G1 X127.678 Y114.33 F12000
G1 Z.2 F720
G1 E.8 F1500
M204 P600
;TYPE:Perimeter
G1 F1200
G1 X127.29 Y114.51 E.01626
G1 X126.787 Y114.627 E.01963
G1 X126.364 Y114.653 E.01611
G1 X125.916 Y114.605 E.01712
G1 X125.404 Y114.447 E.02036
G1 X124.889 Y114.161 E.02239
G1 X124.507 Y113.834 E.01911
G1 X124.148 Y113.374 E.02218
G1 X123.921 Y112.882 E.02059
G1 X123.814 Y112.501 E.01504
G1 X123.767 Y112.053 E.01712
G1 X123.822 Y111.482 E.0218
G1 X123.994 Y110.932 E.0219
G1 X124.24 Y110.487 E.01933
G1 X124.599 Y110.064 E.02109
G1 X125.039 Y109.734 E.0209
G1 X125.382 Y109.554 E.01472
G1 X125.838 Y109.409 E.01819
G1 X126.407 Y109.341 E.02178
G1 X127.004 Y109.409 E.02284
G1 X127.491 Y109.565 E.01944
G1 X127.931 Y109.81 E.01914
G1 X128.346 Y110.171 E.02091
G1 X128.592 Y110.466 E.0146
G1 X128.851 Y110.932 E.02026
G1 X129.023 Y111.482 E.0219
G1 X129.078 Y112.053 E.0218
G1 X129.006 Y112.614 E.0215
G1 X128.865 Y113.042 E.01713
G1 X128.611 Y113.497 E.0198
G1 X128.218 Y113.948 E.02274
G1 X127.732 Y114.305 E.02292
M204 P1000
G1 X127.584 Y113.851 F12000
M204 P600
;TYPE:External perimeter
G1 F1200
G1 X127.478 Y113.928 E.00498
G1 X127.137 Y114.079 E.01417
G1 X126.748 Y114.172 E.0152
G1 X126.403 Y114.198 E.01315
G1 X126.031 Y114.163 E.0142
G1 X125.592 Y114.03 E.01743
G1 X125.145 Y113.782 E.01943
G1 X124.777 Y113.456 E.01869
G1 X124.539 Y113.135 E.01519
G1 X124.358 Y112.748 E.01624
G1 X124.268 Y112.443 E.01209
G1 X124.223 Y112.072 E.0142
G1 X124.269 Y111.578 E.01886
G1 X124.449 Y111.025 E.0221
G1 X124.65 Y110.697 E.01462
G1 X124.914 Y110.396 E.01522
G1 X125.262 Y110.133 E.01658
G1 X125.745 Y109.911 E.0202
G1 X126.385 Y109.8 E.02469
G1 X126.947 Y109.863 E.02149
G1 X127.346 Y110.001 E.01605
G1 X127.67 Y110.186 E.01418
G1 X128.002 Y110.473 E.01668
G1 X128.319 Y110.894 E.02003
G1 X128.532 Y111.372 E.01989
G1 X128.607 Y111.738 E.0142
G1 X128.605 Y112.227 E.01859
G1 X128.487 Y112.748 E.0203
G1 X128.243 Y113.225 E.02036
G1 X127.902 Y113.618 E.01978
G1 X127.633 Y113.815 E.01267
M204 P1000
G1 X127.604 Y113.98 F12000
G1 E-.64 F2100
;WIPE_START
G1 F9600
G1 X127.478 Y113.928 E-.03986
G1 X127.137 Y114.079 E-.0775
G1 X126.937 Y114.127 E-.04264
;WIPE_END
G1 Z.4 F720
G1 X146.485 Y110.133 F12000
G1 Z.2 F720
G1 E.8 F1500
M204 P600
;TYPE:Solid infill
;WIDTH:0.505765
G1 F1200
G1 X146.966 Y110.614 E.02618
G1 X147.057 Y110.791 E.00766
G1 X147.104 Y111.092 E.01172
G1 X147.104 Y111.406 E.01208
G1 X146.014 Y110.316 E.05933
G1 X145.359 Y110.316 E.02521
G1 X147.104 Y112.061 E.09498
G1 X147.104 Y112.715 E.02517
G1 X144.705 Y110.316 E.13057
G1 X144.05 Y110.316 E.02521
G1 X147.017 Y113.283 E.16148
G1 X146.962 Y113.39 E.00463
G1 X146.814 Y113.538 E.00806
G1 X146.684 Y113.604 E.00561
G1 X143.395 Y110.316 E.17898
G1 X142.74 Y110.316 E.02521
G1 X146.104 Y113.68 E.18309
G1 X145.45 Y113.68 E.02517
G1 X142.086 Y110.316 E.18309
G1 X141.431 Y110.315 E.02521
G1 X144.795 Y113.68 E.18312
G1 X144.141 Y113.68 E.02517
G1 X140.776 Y110.315 E.18315
G1 X140.122 Y110.315 E.02517
G1 X143.486 Y113.68 E.18312
G1 X142.831 Y113.68 E.02521
G1 X139.467 Y110.315 E.18312
G1 X138.812 Y110.315 E.02521
G1 X142.177 Y113.68 E.18315
G1 X141.522 Y113.68 E.02521
G1 X138.158 Y110.315 E.18312
G1 X137.503 Y110.315 E.02521
G1 X140.868 Y113.68 E.18315
G1 X140.213 Y113.68 E.02521
G1 X136.848 Y110.315 E.18315
G1 X136.193 Y110.314 E.02521
G1 X139.559 Y113.68 E.1832
G1 X138.904 Y113.68 E.02521
G1 X135.539 Y110.314 E.18317
G1 X134.884 Y110.314 E.02521
G1 X138.25 Y113.68 E.1832
G1 X137.595 Y113.68 E.02521
G1 X134.229 Y110.314 E.1832
G1 X133.575 Y110.314 E.02517
G1 X136.94 Y113.68 E.18317
G1 X136.286 Y113.68 E.02517
G1 X132.92 Y110.314 E.1832
G1 X132.259 Y110.307 E.02544
G1 X135.631 Y113.68 E.18356
G1 X134.977 Y113.68 E.02517
G1 X131.229 Y109.931 E.20402
M204 P1000
G1 E-.64 F2100
;WIPE_START
G1 F9600
G1 X131.773 Y110.475 E-.16
;WIPE_END
G1 Z.4 F720
G1 X128.287 Y91.935 F12000
G1 Z.2 F720
G1 E.8 F1500
M204 P600
G1 F1200
G1 X127.806 Y91.454 E.02618
G1 X127.629 Y91.364 E.00764
G1 X127.328 Y91.316 E.01173
G1 X127.014 Y91.316 E.01208
G1 X128.104 Y92.406 E.05933
G1 X128.104 Y93.061 E.02521
G1 X126.359 Y91.316 E.09498
G1 X125.705 Y91.316 E.02517
